neru-light-classic/32x32/apps/libreoffice-main.svg

<?xml version="1.0" encoding="UTF-8" standalone="no"?>
<svg
   xmlns:dc="http://purl.org/dc/elements/1.1/"
   xmlns:cc="http://creativecommons.org/ns#"
   xmlns:rdf="http://www.w3.org/1999/02/22-rdf-syntax-ns#"
   xmlns:svg="http://www.w3.org/2000/svg"
   xmlns="http://www.w3.org/2000/svg"
   xmlns:sodipodi="http://sodipodi.sourceforge.net/DTD/sodipodi-0.dtd"
   xmlns:inkscape="http://www.inkscape.org/namespaces/inkscape"
   height="32"
   width="32"
   version="1"
   id="svg12"
   sodipodi:docname="libreoffice-main.svg"
   inkscape:version="0.92.4 5da689c313, 2019-01-14">
  <metadata
     id="metadata18">
    <rdf:RDF>
      <cc:Work
         rdf:about="">
        <dc:format>image/svg+xml</dc:format>
        <dc:type
           rdf:resource="http://purl.org/dc/dcmitype/StillImage" />
        <dc:title></dc:title>
      </cc:Work>
    </rdf:RDF>
  </metadata>
  <defs
     id="defs16" />
  <sodipodi:namedview
     pagecolor="#ffffff"
     bordercolor="#666666"
     borderopacity="1"
     objecttolerance="10"
     gridtolerance="10"
     guidetolerance="10"
     inkscape:pageopacity="0"
     inkscape:pageshadow="2"
     inkscape:window-width="932"
     inkscape:window-height="698"
     id="namedview14"
     showgrid="false"
     inkscape:zoom="7.375"
     inkscape:cx="16"
     inkscape:cy="16"
     inkscape:window-x="123"
     inkscape:window-y="181"
     inkscape:window-maximized="0"
     inkscape:current-layer="svg12"
     inkscape:pagecheckerboard="true" />
  <path
     inkscape:connector-curvature="0"
     style="opacity:1;fill:#808080;fill-opacity:1;fill-rule:evenodd;stroke:none;stroke-width:1.04294288;stroke-linecap:round;stroke-linejoin:bevel;stroke-miterlimit:4;stroke-dasharray:none;stroke-dashoffset:0;stroke-opacity:1"
     d="M 30.286,12.114 V 7.3291346 c 0,-3.1113218 -2.503812,-5.6151341 -5.615134,-5.6151341 H 19.886 Z"
     id="path4496" />
  <path
     inkscape:connector-curvature="0"
     style="opacity:1;fill:#fdf6f6;fill-opacity:1;fill-rule:evenodd;stroke:none;stroke-width:1.04257059;stroke-linecap:round;stroke-linejoin:bevel;stroke-miterlimit:4;stroke-dasharray:none;stroke-dashoffset:0;stroke-opacity:1"
     d="M 18.124067,1.8019995 H 7.4130971 C 4.3028854,1.8019995 1.798,4.3049182 1.798,7.4151296 V 24.586903 c 0,3.110212 2.5048854,5.615097 5.6150971,5.615097 H 24.58487 c 3.110211,0 5.61313,-2.504885 5.61313,-5.615097 v -10.71097 z"
     id="path4494" />
  <path
     inkscape:connector-curvature="0"
     style="opacity:1;fill:#fdf6f6;fill-opacity:1;fill-rule:evenodd;stroke:none;stroke-width:1.04395795;stroke-linecap:round;stroke-linejoin:bevel;stroke-miterlimit:4;stroke-dasharray:none;stroke-dashoffset:0;stroke-opacity:1"
     d="m 18.111328,1.7986715 12.09,12.0900005 V 12.208794 L 19.791205,1.7986715 Z"
     id="rect4497-3-36" />
  <path
     style="color:#000000;font-style:normal;font-variant:normal;font-weight:normal;font-stretch:normal;font-size:medium;line-height:normal;font-family:sans-serif;font-variant-ligatures:normal;font-variant-position:normal;font-variant-caps:normal;font-variant-numeric:normal;font-variant-alternates:normal;font-feature-settings:normal;text-indent:0;text-align:start;text-decoration:none;text-decoration-line:none;text-decoration-style:solid;text-decoration-color:#000000;letter-spacing:normal;word-spacing:normal;text-transform:none;writing-mode:lr-tb;direction:ltr;text-orientation:mixed;dominant-baseline:auto;baseline-shift:baseline;text-anchor:start;white-space:normal;shape-padding:0;clip-rule:nonzero;display:inline;overflow:visible;visibility:visible;opacity:1;isolation:auto;mix-blend-mode:normal;color-interpolation:sRGB;color-interpolation-filters:linearRGB;solid-color:#000000;solid-opacity:1;vector-effect:none;fill:#808080;fill-opacity:1;fill-rule:evenodd;stroke:none;stroke-width:1.23500001;stroke-linecap:round;stroke-linejoin:bevel;stroke-miterlimit:4;stroke-dasharray:none;stroke-dashoffset:0;stroke-opacity:1;color-rendering:auto;image-rendering:auto;shape-rendering:auto;text-rendering:auto;enable-background:accumulate"
     d="M 7.636875,1.710782 C 4.297774,1.710782 1.59,4.416343 1.59,7.755704 V 24.363125 C 1.59,27.702489 4.297514,30.41 7.636875,30.41 h 16.607422 c 3.339362,0 6.044922,-2.707771 6.044922,-6.046875 V 14.003751 L 30.109531,13.568204 18.431797,1.89047 17.99625,1.710782 Z m 0,1.234375 h 10.103516 l 11.314453,11.314452 v 10.103516 c 0,2.676533 -2.134277,4.8125 -4.810547,4.8125 H 7.636875 c -2.67627,0 -4.8125,-2.136228 -4.8125,-4.8125 V 7.755704 c 0,-2.676269 2.13597,-4.810547 4.8125,-4.810547 z"
     id="path4494-6"
     inkscape:connector-curvature="0" />
</svg>

<svg xmlns="http://www.w3.org/2000/svg" height="32" width="32" version="1"><path d="M30.286 12.114V7.329a5.602 5.602 0 0 0-5.615-5.615h-4.785z" fill="gray" fill-rule="evenodd"/><path d="M18.124 1.802H7.414a5.602 5.602 0 0 0-5.616 5.613v17.172a5.604 5.604 0 0 0 5.615 5.615h17.172a5.602 5.602 0 0 0 5.613-5.615V13.876z" fill="#fdf6f6" fill-rule="evenodd"/><path d="M18.111 1.799l12.09 12.09v-1.68l-10.41-10.41z" fill="#fdf6f6" fill-rule="evenodd"/><path style="line-height:normal;font-variant-ligatures:normal;font-variant-position:normal;font-variant-caps:normal;font-variant-numeric:normal;font-variant-alternates:normal;font-feature-settings:normal;text-indent:0;text-align:start;text-decoration-line:none;text-decoration-style:solid;text-decoration-color:#000;text-transform:none;text-orientation:mixed;white-space:normal;shape-padding:0;isolation:auto;mix-blend-mode:normal;solid-color:#000;solid-opacity:1" d="M7.637 1.71A6.046 6.046 0 0 0 1.59 7.757v16.607a6.047 6.047 0 0 0 6.047 6.047h16.607a6.046 6.046 0 0 0 6.045-6.047v-10.36l-.18-.435L18.433 1.89l-.436-.18zm0 1.235H17.74L29.055 14.26v10.103a4.787 4.787 0 0 1-4.81 4.813H7.636a4.79 4.79 0 0 1-4.813-4.813V7.756a4.787 4.787 0 0 1 4.813-4.81z" color="#000" font-weight="400" font-family="sans-serif" overflow="visible" fill="gray" fill-rule="evenodd"/></svg>
